img/instagram.svg

<?xml version="1.0" encoding="utf-8"?>
<!-- Generator: Adobe Illustrator 22.0.1, SVG Export Plug-In . SVG Version: 6.00 Build 0)  -->
<svg version="1.1" id="Layer_1" xmlns="http://www.w3.org/2000/svg" xmlns:xlink="http://www.w3.org/1999/xlink" x="0px" y="0px"
	 viewBox="0 0 400 400" style="enable-background:new 0 0 400 400;" xml:space="preserve">
<style type="text/css">
	.st0{fill:#FFFF00;}
</style>
<g>
	<path class="st0" d="M280.8,0H119.2C53.5,0,0,53.5,0,119.2v161.7C0,346.5,53.5,400,119.2,400h161.7c65.7,0,119.2-53.5,119.2-119.2
		V119.2C400,53.5,346.5,0,280.8,0z M359.8,280.8c0,43.6-35.3,78.9-78.9,78.9H119.2c-43.6,0-78.9-35.3-78.9-78.9V119.2
		c0-43.6,35.3-78.9,78.9-78.9h161.7c43.6,0,78.9,35.3,78.9,78.9V280.8L359.8,280.8z"/>
	<path class="st0" d="M200,96.5C143,96.5,96.5,143,96.5,200S143,303.5,200,303.5S303.5,257,303.5,200S257,96.5,200,96.5z M200,263.2
		c-34.9,0-63.2-28.3-63.2-63.2s28.3-63.2,63.2-63.2c34.9,0,63.2,28.3,63.2,63.2C263.2,234.9,234.9,263.2,200,263.2z"/>
	<circle class="st0" cx="303.7" cy="97.3" r="24.8"/>
</g>
</svg>

<svg width="400" height="400" viewBox="0 0 400 400" fill="none" xmlns="http://www.w3.org/2000/svg">
	<g clip-path="url(#instagram)">
		<path d="M280.8 0H119.2C53.5 0 0 53.5 0 119.2V280.9C0 346.5 53.5 400 119.2 400H280.9C346.6 400 400.1 346.5 400.1 280.8V119.2C400 53.5 346.5 0 280.8 0ZM359.8 280.8C359.8 324.4 324.5 359.7 280.9 359.7H119.2C75.6 359.7 40.3 324.4 40.3 280.8V119.2C40.3 75.6 75.6 40.3 119.2 40.3H280.9C324.5 40.3 359.8 75.6 359.8 119.2V280.8Z" fill="#FFFF00"/>
		<path d="M200 96.5C143 96.5 96.5 143 96.5 200C96.5 257 143 303.5 200 303.5C257 303.5 303.5 257 303.5 200C303.5 143 257 96.5 200 96.5ZM200 263.2C165.1 263.2 136.8 234.9 136.8 200C136.8 165.1 165.1 136.8 200 136.8C234.9 136.8 263.2 165.1 263.2 200C263.2 234.9 234.9 263.2 200 263.2Z" fill="#FFFF00"/>
		<path d="M303.7 122.1C317.397 122.1 328.5 110.997 328.5 97.3C328.5 83.6033 317.397 72.5 303.7 72.5C290.003 72.5 278.9 83.6033 278.9 97.3C278.9 110.997 290.003 122.1 303.7 122.1Z" fill="#FFFF00"/>
	</g>
	<defs>
		<clipPath id="instagram">
			<rect width="400" height="400" fill="white"/>
		</clipPath>
	</defs>
</svg>
